X: 559
T: Windsor Castle
%R: reel
B: "Twenty Four Country Dances for the Year 1805", Tho. Preston, ed. p.240 #1
F: http://folkopedia.efdss.org/images/archive/0/02/20121211105513%21Preston_24_1805.PDF
Z: 2014 John Chambers <jc:trillian.mit.edu>
N: Length of last note adjusted to fix the rhythm on repeats.
M: C|
L: 1/8
K: F
f |\
ec-ce dB Bc/d/ | AFcF EGGf |\
ec-ce dB Bc/d/ | AFBG F2F :|\
e |\
cf-fa gf/e/ fc | cfaf dgbg |
cf2a gf/e/ fd | cBTAG F2Fd |\
cf-fa gf/e/ fc | cfaf egab |\
afge fdcB | AFBG F2F |]
%%begintext align
%% 1st and 2d Cu. set and change sides. back again.
%% lead down the middle. up again and allemande.
%%endtext

%%sep 1 1 500
%%sep 1 1 500
